X:1
T:Guarulhos, 87.87 D
T:Guarulhos, 87.87 D
T:Henry Lake Gilmour, 1882
T:Public Domain Courtesy of the Cyber Hymnal™
C:Henry Lake Gilmour, 1882
Z:Public Domain
Z:Courtesy of the Cyber Hymnal™
%%score ( 1 2 ) ( 3 4 )
L:1/8
Q:1/4=125
M:3/4
K:Db
V:1 treble 
V:2 treble 
V:3 bass 
V:4 bass 
V:1
 ([Fd]2 [Ac]2) [GB]2 | [FA]4 [FA]2 | ([GB]2 [FA]2) [EG]2 | [EG]2 [DF]2 z2 | ([DB]2 [Gc]2) [Fd]2 | %5
 [EA]4 [DF]2 | (B2 A2) [DF]2 | [CE]4 z2 | A2 [=GB]2 [_Gc]2 | [Ge]2 [Fd]2 [E=G]2 | [EB]4 [Ec]2 | %11
 [EB]2 [EA]2 z2 | ([CA]2 [DB]2) [Ec]2 | [Dd]4 ([DB][EG]) | [DF]4 [CE]2 | D4 z2 | %16
 ([CE]2 [DF]2) [EG]2 | [Ac]4 ([GB][FA]) | [FA]4 [EG]2 | [EG]2 [DF]2 z2 | ([FA]2 [GB]2) [Gc]2 | %21
 [Fd]4 [DF]2 | ([DF]2 [EG]2) [DF]2 | [CE]6 | A2 [=GB]2 [_Gc]2 | [Ge]2 [Fd]2 [E=G]2 | [EB]4 [Ec]2 | %27
 [EB]2 [EA]2 z2 | ([CA]2 [DB]2) [Ec]2 | [Dd]4 ([DB][EG]) | [DF]4 [CE]2 | D4 z2 |] x6 |] %33
V:2
 x6 | x6 | x6 | x6 | x6 | x6 | D4 x2 | x6 | A2 x4 | x6 | x6 | x6 | x6 | x6 | x6 | D4 x2 | x6 | x6 | %18
 x6 | x6 | x6 | x6 | x6 | x6 | A2 x4 | x6 | x6 | x6 | x6 | x6 | x6 | D4 x2 |] x6 |] %33
V:3
 [D,A,]4 (B,C) | [D,D]4 [D,D]2 | [D,D]4 [A,,C]2 | [D,A,]2 [D,A,]2 z2 | G,2 [E,A,]2 [D,A,]2 | %5
 [C,A,]4 [D,A,]2 | G,2 [F,A,]2 [D,A,]2 | [A,,A,]4 x2 | z2 x4 | (C2 D2) [A,E]2 | %10
 ([=A,C]2 [B,D]2) [E,B,]2 | [=G,D]4 [E,E]2 | [A,D]2 [A,C]2 z2 | [G,A,]4 [G,A,]2 | [F,A,]4 [G,B,]2 | %15
 A,4 [A,,G,]2 | [D,F,]4 z2 | [A,,A,]4 [A,,A,]2 | [A,,A,]4 [A,,A,]2 | A,4 [C,A,]2 | %20
 [D,A,]2 [D,A,]2 z2 | [D,D]4 [D,A,]2 | [D,A,]4 [D,A,]2 | A,4 [D,A,]2 | [A,,A,]6 | (C2 D2) [A,E]2 | %26
 ([=A,C]2 [B,D]2) [E,B,]2 | [=G,D]4 [E,E]2 | [A,D]2 [A,C]2 z2 | [G,A,]4 [G,A,]2 | [F,A,]4 [G,B,]2 | %31
 A,4 [A,,G,]2 |] [D,F,]4 z2 |] %33
V:4
 x4 D,2 | x6 | x6 | x6 | G,2 x4 | x6 | G,2 x4 | x6 | x6 | A,4 x2 | x6 | x6 | x6 | x6 | x6 | %15
 A,4 x2 | x6 | x6 | x6 | (A,,2 B,,2) x2 | x6 | x6 | x6 | (D,2 C,2) x2 | x6 | A,4 x2 | x6 | x6 | %28
 x6 | x6 | x6 | A,4 x2 |] x6 |] %33

